packages/tokens/icons/size/size32Px.svg

<svg viewBox="0 0 32 32" fill="none" xmlns="http://www.w3.org/2000/svg" width="1em" height="1em"><path fill-rule="evenodd" clip-rule="evenodd" d="M12.8536 12.1464L5.70711 5L12.5 5C12.7761 5 13 4.77614 13 4.5C13 4.22386 12.7761 4 12.5 4L4.5 4C4.22386 4 4 4.22386 4 4.5L4 12.5C4 12.7761 4.22386 13 4.5 13C4.77614 13 5 12.7761 5 12.5L5 5.70711L12.1464 12.8536C12.3417 13.0488 12.6583 13.0488 12.8536 12.8536C13.0488 12.6583 13.0488 12.3417 12.8536 12.1464ZM19.8536 12.8536L27 5.70711V12.5C27 12.7761 27.2239 13 27.5 13C27.7761 13 28 12.7761 28 12.5V4.5C28 4.22386 27.7761 4 27.5 4L19.5 4C19.2239 4 19 4.22386 19 4.5C19 4.77614 19.2239 5 19.5 5L26.2929 5L19.1464 12.1464C18.9512 12.3417 18.9512 12.6583 19.1464 12.8536C19.3417 13.0488 19.6583 13.0488 19.8536 12.8536ZM19.1464 19.8536C18.9512 19.6583 18.9512 19.3417 19.1464 19.1464C19.3417 18.9512 19.6583 18.9512 19.8536 19.1464L27 26.2929V19.5C27 19.2239 27.2239 19 27.5 19C27.7761 19 28 19.2239 28 19.5V27.5C28 27.7761 27.7761 28 27.5 28H19.5C19.2239 28 19 27.7761 19 27.5C19 27.2239 19.2239 27 19.5 27H26.2929L19.1464 19.8536ZM12.8536 19.8536C13.0488 19.6583 13.0488 19.3417 12.8536 19.1464C12.6583 18.9512 12.3417 18.9512 12.1464 19.1464L5 26.2929L5 19.5C5 19.2239 4.77614 19 4.5 19C4.22386 19 4 19.2239 4 19.5L4 27.5C4 27.7761 4.22386 28 4.5 28H12.5C12.7761 28 13 27.7761 13 27.5C13 27.2239 12.7761 27 12.5 27H5.70711L12.8536 19.8536Z" fill="currentColor"/></svg>

<svg xmlns="http://www.w3.org/2000/svg" fill="none" viewBox="0 0 32 32" width="1em" height="1em"><path fill="currentColor" fill-rule="evenodd" d="M12.854 12.146 5.707 5H12.5a.5.5 0 0 0 0-1h-8a.5.5 0 0 0-.5.5v8a.5.5 0 0 0 1 0V5.707l7.146 7.147a.5.5 0 0 0 .708-.708Zm7 .708L27 5.707V12.5a.5.5 0 0 0 1 0v-8a.5.5 0 0 0-.5-.5h-8a.5.5 0 0 0 0 1h6.793l-7.147 7.146a.5.5 0 0 0 .708.708Zm-.708 7a.5.5 0 0 1 .708-.708L27 26.293V19.5a.5.5 0 0 1 1 0v8a.5.5 0 0 1-.5.5h-8a.5.5 0 0 1 0-1h6.793l-7.147-7.146Zm-6.292 0a.5.5 0 0 0-.708-.708L5 26.293V19.5a.5.5 0 0 0-1 0v8a.5.5 0 0 0 .5.5h8a.5.5 0 0 0 0-1H5.707l7.147-7.146Z" clip-rule="evenodd"/></svg>
